public/avatar/body/145.svg

<svg xmlns:xlink="http://www.w3.org/1999/xlink" height="82" width="84.85" xmlns="http://www.w3.org/2000/svg"><g transform="translate(37.4 42.25)"><use height="38" transform="translate(-11.95 -17.45)" width="32.05" xlink:href="#a"/><use height="38.95" transform="translate(-12.45 -17.95)" width="33.05" xlink:href="#b"/><use height="26.75" transform="translate(-15.55 -.2)" width="39.65" xlink:href="#c"/><use height="6.15" transform="translate(7.4 10.9)" width="5.55" xlink:href="#d"/><use height="6.15" transform="matrix(.2087 .9773 -.9773 .2087 19.25 7.1)" width="5.55" xlink:href="#d"/><use height="6.15" transform="matrix(-.5487 -.8338 .8338 -.5487 15.2 21.15)" width="5.55" xlink:href="#d"/><use height="6.15" transform="rotate(133.087 1.286 12.44) scale(.9975)" width="5.55" xlink:href="#d"/><use height="6.15" transform="matrix(.3784 .9214 -.9214 .3784 4.05 11.7)" width="5.55" xlink:href="#d"/><use height="6.15" transform="matrix(-.6342 -.7657 .7657 -.6342 -4.2 23.35)" width="5.55" xlink:href="#d"/><use height="6.15" transform="rotate(-79.513 4.508 16.158) scale(.9922)" width="5.55" xlink:href="#d"/><use height="14.55" transform="translate(-13.3 1.05)" width="34.85" xlink:href="#e"/></g><defs><path d="M27.35 7.4q2.15 4.15 3.55 8.75 1.45 4.7 1.15 9.5-.35 4.95-4.2 8.1-3.8 3.2-8.75 4.05l-2.6.2q-3.6 0-7.05-1.15-4.65-1.6-7.1-5.5Q-.2 27.4.05 23q.2-4.4 2-9.3Q3.85 8.75 7 5.05 10.1 1.3 14.7.1l1.8-.1q1.9.05 3.7.8 4.75 2.05 7.15 6.6" fill="#fff" fill-rule="evenodd" transform="translate(-.05)" id="f"/><path d="M27.35 7.4Q24.95 2.85 20.2.8 17.55-.3 14.7.1 10.1 1.3 7 5.05q-3.15 3.7-4.95 8.65-1.8 4.9-2 9.3-.25 4.4 2.3 8.35 2.45 3.9 7.1 5.5 4.65 1.55 9.65.95 4.95-.85 8.75-4.05 3.85-3.15 4.2-8.1.3-4.8-1.15-9.5-1.4-4.6-3.55-8.75Z" fill="none" stroke="#010102" stroke-linecap="round" stroke-linejoin="round" transform="translate(.45 .5)" id="g"/><path d="M.85.55q1.6-1.2 3.4.2 1.9 1.5 1.05 4-.6.7-2.05-1.45.9 2.5-.25 2.8-1.1.35-2.35-1.85Q-.7 2 .85.55" fill="#020202" fill-rule="evenodd" id="h"/><use height="38" width="32.05" xlink:href="#f" id="a"/><use height="38.95" width="33.05" xlink:href="#g" id="b"/><use height="6.15" width="5.55" xlink:href="#h" id="d"/><g id="c" fill-rule="evenodd"><path d="m23.35 18.1.75.9-2.95-.1-.8.5-.45 3-2-.8-1.3.25-.85 2.3-.35 1.25-.85-.85-.8-.7h-.25l-1.15 1.2q-2.2-1.95-4.95-.75-1.6.6-2.1 2.25L3.9 25l-.9-.75-3.1 1.8q-.65-1.25-2.05-1.55-1.8-.5-3.05.8l-1.35-1.8-.45-.45-1.3.1q-1.1-1.4-2.75-1.65-1.05-.35-1.9.6 0-.65-.15-1.2l-.6-1.75-1.85-.55q3.4-3.55 3.15-8.4l-.1-1.2q7.1 4.2 15.25 2.55 6.5-1.3 11.85-5.1Q18.4 3.8 20.8-.2l-.35 10.65q.05 4.4 2.9 7.65M4.1 23.25l1 .8q3.15-2.6 6.7-.75l.35-.45.35-.35 1.05-.35.95.4q1.05-2.05 3.3-2.4l.8.05.8-1.6q.65-1.05 1.7-1.15-3.6-6.1-1.8-13.6l.3-1.35Q13 11 2.2 12.85q-6.65.95-12.95-1.6l-.35 2.9q-.5 1.55-1.6 2.65l-.7.75 1.35.8.1.25.15 1.35q2.65-.6 3.8 1.8 1.25-.2 2.15.65l.95.9q1.55-.8 3.3-.25 1.1.3 1.65 1.2 1.8-1.15 4.05-1" fill="#351904" transform="translate(15.55 .2)"/><path d="M-11.1 14.15q5 .55 9 3.45l1.2-.95q4.95-3.6 10.65-.95l.9-.95q1.45-1.5 3.1-2.5-.25 2.2-1.4 3.85-3.2 4.55-8.25 7.15-2.25-.15-4.05 1-.55-.9-1.65-1.2-1.75-.55-3.3.25l-.95-.9q-.9-.85-2.15-.65-1.15-2.4-3.8-1.8l-.15-1.35-.1-.25-1.35-.8.7-.75q1.1-1.1 1.6-2.65" fill="#fe9f34" transform="translate(15.55 .2)"/><path d="m-11.1 14.15.35-2.9q6.3 2.55 12.95 1.6Q13 11 19.6 2.5l-.3 1.35q-1.8 7.5 1.8 13.6-1.05.1-1.7 1.15l-.8 1.6-.8-.05q-2.25.35-3.3 2.4l-.95-.4-1.05.35-.35.35-.35.45q-3.55-1.85-6.7.75l-1-.8q5.05-2.6 8.25-7.15 1.15-1.65 1.4-3.85-1.65 1-3.1 2.5l-.9.95q-5.7-2.65-10.65.95l-1.2.95q-4-2.9-9-3.45" fill="#b55b10" transform="translate(15.55 .2)"/></g><g id="e" fill-rule="evenodd"><path d="m20.45 1.35.35.65q.9 1.65.75 2.1l-.35.4q-3.5 2.05-4.5 5-.15.4-.6.3-2.1-.5-4.4.9-1.65 1-2 2.5l-.25.3H9q-2.1-1-5.6-.45-3.65.55-5.15 2.35-.15.25-.5.15-2.45-.85-5.95-1.35-3.45-.45-3.85 0-.2.85-.7.6-.6 0-.55-1.1.3-3.25 4.7-3.2h.05Q2 12.1 11.8 6.85q3.05-1.6 5.7-3.75l2.05-1.85q.15-.2.45-.2.3 0 .45.3" fill="#3f1d03" transform="translate(13.3 -1.05)"/><path d="M17.65 5.45q-1.45 1.3-1.9 3.2-1.5-.35-3.35.35-2.45.9-3.6 3.3-2.1-1-5.55-.45-3.8.55-6 2.65-5.2-2.35-8.5-1.5h-1.25v-1.75h.5q12.6 2 22.4-2.3 5.55-2.45 8.9-6.15 1.85 1.3.7 1.45-1.1.05-2.35 1.2" fill="#fedfb3" transform="translate(13.3 -1.05)"/><path d="M19.3 2.8q1.85 1.3.7 1.45-1.1.05-2.35 1.2-1.45 1.3-1.9 3.2-1.5-.35-3.35.35-2.45.9-3.6 3.3l-2.3-.55q2.1-1.15 4.15-2.9Q16.1 6.4 19.3 2.8" fill="#ffa748" transform="translate(13.3 -1.05)"/></g></defs></svg>

<?xml version="1.0" encoding="UTF-8" standalone="no"?>
<svg xmlns:xlink="http://www.w3.org/1999/xlink" height="82.0px" width="84.85px" xmlns="http://www.w3.org/2000/svg">
  <g transform="matrix(1.0, 0.0, 0.0, 1.0, 37.4, 42.25)">
    <use height="38.0" transform="matrix(1.0, 0.0, 0.0, 1.0, -11.95, -17.45)" width="32.05" xlink:href="#sprite0"/>
    <use height="38.95" transform="matrix(1.0, 0.0, 0.0, 1.0, -12.45, -17.95)" width="33.05" xlink:href="#sprite1"/>
    <use height="26.75" transform="matrix(1.0, 0.0, 0.0, 1.0, -15.55, -0.2)" width="39.65" xlink:href="#shape2"/>
    <use height="6.15" transform="matrix(1.0, 0.0, 0.0, 1.0, 7.4, 10.9)" width="5.55" xlink:href="#sprite2"/>
    <use height="6.15" transform="matrix(0.2087, 0.9773, -0.9773, 0.2087, 19.25, 7.1)" width="5.55" xlink:href="#sprite2"/>
    <use height="6.15" transform="matrix(-0.5487, -0.8338, 0.8338, -0.5487, 15.2, 21.15)" width="5.55" xlink:href="#sprite2"/>
    <use height="6.15" transform="matrix(-0.6814, 0.7285, -0.7285, -0.6814, 11.25, 20.0)" width="5.55" xlink:href="#sprite2"/>
    <use height="6.15" transform="matrix(0.3784, 0.9214, -0.9214, 0.3784, 4.05, 11.7)" width="5.55" xlink:href="#sprite2"/>
    <use height="6.15" transform="matrix(-0.6342, -0.7657, 0.7657, -0.6342, -4.2, 23.35)" width="5.55" xlink:href="#sprite2"/>
    <use height="6.15" transform="matrix(0.1806, -0.9756, 0.9756, 0.1806, -12.2, 17.65)" width="5.55" xlink:href="#sprite2"/>
    <use height="14.55" transform="matrix(1.0, 0.0, 0.0, 1.0, -13.3, 1.05)" width="34.85" xlink:href="#shape4"/>
  </g>
  <defs>
    <g id="sprite0" transform="matrix(1.0, 0.0, 0.0, 1.0, -0.05, 0.0)">
      <use height="38.0" transform="matrix(1.0, 0.0, 0.0, 1.0, 0.05, 0.0)" width="32.05" xlink:href="#shape0"/>
    </g>
    <g id="shape0" transform="matrix(1.0, 0.0, 0.0, 1.0, -0.05, 0.0)">
      <path d="M27.35 7.4 Q29.5 11.55 30.9 16.15 32.35 20.85 32.05 25.65 31.7 30.6 27.85 33.75 24.05 36.95 19.1 37.8 L16.5 38.0 Q12.9 38.0 9.45 36.85 4.8 35.25 2.35 31.35 -0.2 27.4 0.05 23.0 0.25 18.6 2.05 13.7 3.85 8.75 7.0 5.05 10.1 1.3 14.7 0.1 L16.5 0.0 Q18.4 0.05 20.2 0.8 24.95 2.85 27.35 7.4" fill="#ffffff" fill-rule="evenodd" stroke="none"/>
    </g>
    <g id="sprite1" transform="matrix(1.0, 0.0, 0.0, 1.0, 0.45, 0.5)">
      <use height="38.95" transform="matrix(1.0, 0.0, 0.0, 1.0, -0.45, -0.5)" width="33.05" xlink:href="#shape1"/>
    </g>
    <g id="shape1" transform="matrix(1.0, 0.0, 0.0, 1.0, 0.45, 0.5)">
      <path d="M27.35 7.4 Q24.95 2.85 20.2 0.8 17.55 -0.3 14.7 0.1 10.1 1.3 7.0 5.05 3.85 8.75 2.05 13.7 0.25 18.6 0.05 23.0 -0.2 27.4 2.35 31.35 4.8 35.25 9.45 36.85 14.1 38.4 19.1 37.8 24.05 36.95 27.85 33.75 31.7 30.6 32.05 25.65 32.35 20.85 30.9 16.15 29.5 11.55 27.35 7.4 Z" fill="none" stroke="#010102" stroke-linecap="round" stroke-linejoin="round" stroke-width="1.0"/>
    </g>
    <g id="shape2" transform="matrix(1.0, 0.0, 0.0, 1.0, 15.55, 0.2)">
      <path d="M23.35 18.1 L24.1 19.0 21.15 18.9 20.35 19.4 19.9 22.4 17.9 21.6 16.6 21.85 15.75 24.15 15.4 25.4 14.55 24.55 13.75 23.85 13.5 23.85 12.35 25.05 Q10.15 23.1 7.4 24.3 5.8 24.9 5.3 26.55 L3.9 25.0 3.0 24.25 -0.1 26.05 Q-0.75 24.8 -2.15 24.5 -3.95 24.0 -5.2 25.3 L-6.55 23.5 -7.0 23.05 -8.3 23.15 Q-9.4 21.75 -11.05 21.5 -12.1 21.15 -12.95 22.1 -12.95 21.45 -13.1 20.9 L-13.7 19.15 -15.55 18.6 Q-12.15 15.05 -12.4 10.2 L-12.5 9.0 Q-5.4 13.2 2.75 11.55 9.25 10.25 14.6 6.45 18.4 3.8 20.8 -0.2 L20.45 10.45 Q20.5 14.85 23.35 18.1 M4.1 23.25 L5.1 24.05 Q8.25 21.45 11.8 23.3 L12.15 22.85 12.5 22.5 13.55 22.15 14.5 22.55 Q15.55 20.5 17.8 20.15 L18.6 20.2 19.4 18.6 Q20.05 17.55 21.1 17.45 17.5 11.35 19.3 3.85 L19.6 2.5 Q13.0 11.0 2.2 12.85 -4.45 13.8 -10.75 11.25 L-11.1 14.15 Q-11.6 15.7 -12.7 16.8 L-13.4 17.55 -12.05 18.35 -11.95 18.6 -11.8 19.95 Q-9.15 19.35 -8.0 21.75 -6.75 21.55 -5.85 22.4 L-4.9 23.3 Q-3.35 22.5 -1.6 23.05 -0.5 23.35 0.05 24.25 1.85 23.1 4.1 23.25" fill="#351904" fill-rule="evenodd" stroke="none"/>
      <path d="M-11.1 14.15 Q-6.1 14.7 -2.1 17.6 L-0.9 16.65 Q4.05 13.05 9.75 15.7 L10.65 14.75 Q12.1 13.25 13.75 12.25 13.5 14.45 12.35 16.1 9.15 20.65 4.1 23.25 1.85 23.1 0.05 24.25 -0.5 23.35 -1.6 23.05 -3.35 22.5 -4.9 23.3 L-5.85 22.4 Q-6.75 21.55 -8.0 21.75 -9.15 19.35 -11.8 19.95 L-11.95 18.6 -12.05 18.35 -13.4 17.55 -12.7 16.8 Q-11.6 15.7 -11.1 14.15" fill="#fe9f34" fill-rule="evenodd" stroke="none"/>
      <path d="M-11.1 14.15 L-10.75 11.25 Q-4.45 13.8 2.2 12.85 13.0 11.0 19.6 2.5 L19.3 3.85 Q17.5 11.35 21.1 17.45 20.05 17.55 19.4 18.6 L18.6 20.2 17.8 20.15 Q15.55 20.5 14.5 22.55 L13.55 22.15 12.5 22.5 12.15 22.85 11.8 23.3 Q8.25 21.45 5.1 24.05 L4.1 23.25 Q9.15 20.65 12.35 16.1 13.5 14.45 13.75 12.25 12.1 13.25 10.65 14.75 L9.75 15.7 Q4.05 13.05 -0.9 16.65 L-2.1 17.6 Q-6.1 14.7 -11.1 14.15" fill="#b55b10" fill-rule="evenodd" stroke="none"/>
    </g>
    <g id="sprite2" transform="matrix(1.0, 0.0, 0.0, 1.0, 0.0, 0.0)">
      <use height="6.15" transform="matrix(1.0, 0.0, 0.0, 1.0, 0.0, 0.0)" width="5.55" xlink:href="#shape3"/>
    </g>
    <g id="shape3" transform="matrix(1.0, 0.0, 0.0, 1.0, 0.0, 0.0)">
      <path d="M0.85 0.55 Q2.45 -0.65 4.25 0.75 6.15 2.25 5.3 4.75 4.7 5.45 3.25 3.3 4.15 5.8 3.0 6.1 1.9 6.45 0.65 4.25 -0.7 2.0 0.85 0.55" fill="#020202" fill-rule="evenodd" stroke="none"/>
    </g>
    <g id="shape4" transform="matrix(1.0, 0.0, 0.0, 1.0, 13.3, -1.05)">
      <path d="M20.45 1.35 L20.8 2.0 Q21.7 3.65 21.55 4.1 L21.2 4.5 Q17.7 6.55 16.7 9.5 16.55 9.9 16.1 9.8 14.0 9.3 11.7 10.7 10.05 11.7 9.7 13.2 L9.45 13.5 9.0 13.5 Q6.9 12.5 3.4 13.05 -0.25 13.6 -1.75 15.4 -1.9 15.65 -2.25 15.55 -4.7 14.7 -8.2 14.2 -11.65 13.75 -12.05 14.2 -12.25 15.05 -12.75 14.8 -13.35 14.8 -13.3 13.7 -13.0 10.45 -8.6 10.5 L-8.55 10.5 Q2.0 12.1 11.8 6.85 14.85 5.25 17.5 3.1 L19.55 1.25 Q19.7 1.05 20.0 1.05 20.3 1.05 20.45 1.35" fill="#3f1d03" fill-rule="evenodd" stroke="none"/>
      <path d="M17.65 5.45 Q16.2 6.75 15.75 8.65 14.25 8.3 12.4 9.0 9.95 9.9 8.8 12.3 6.7 11.3 3.25 11.85 -0.55 12.4 -2.75 14.5 -7.95 12.15 -11.25 13.0 L-12.5 13.0 -12.5 11.25 -12.0 11.25 Q0.6 13.25 10.4 8.95 15.95 6.5 19.3 2.8 21.15 4.1 20.0 4.25 18.9 4.3 17.65 5.45" fill="#fedfb3" fill-rule="evenodd" stroke="none"/>
      <path d="M19.3 2.8 Q21.15 4.1 20.0 4.25 18.9 4.3 17.65 5.45 16.2 6.75 15.75 8.65 14.25 8.3 12.4 9.0 9.95 9.9 8.8 12.3 L6.5 11.75 Q8.6 10.6 10.65 8.85 16.1 6.4 19.3 2.8" fill="#ffa748" fill-rule="evenodd" stroke="none"/>
    </g>
  </defs>
</svg>
